X:10
T:Polska efter H\"o\"ok Olle
R:polska J
A:R\"attvik, Dalarna
Z:id:hn-jp-10
M:3/4
L:1/16
K:Gdor
D2 | G3A BcBA G3A | BABc {dc}d6e2 | {fefe}f3g a2(3gag e3g |
g2(3^fg^f d3c B/c/B/c/BA | G3A BcBA G3A | BABc {dc}d6e2 |
{fefe}f3g a2(3gag =e3g | g2(3^fg^f d6 :||: d2 | g2(3ag^f g4 {g}a4 |
=fgfe {fefe}f4 d4 | g2(3ag^f g2=b2 a2(3gag | e4 {fefe}f4 d3c |
BABc {dc}d4 d3f | e2^c2 {d^c}d4 d3=c | BABc d2cA ^F4 | G6 :| 
<end>
<start>
